X:251
T: Geistliche Lieder im Jacobston
N: A0611A
O: Europa, Mitteleuropa, Deutschland
N: Babsts Gsgb 1561 II No. 63
R: Romanze, Ballade, Lied, religioeses Lied
M: 4/1
L: 1/2
K: D
=F | =F2F2G2G2 | A2A2A2z
A | G2A2_B2A2 | G2=F2G2z
G | A2A2=F2F2 | D4=C4
A2AG=F2F2 | G2=F2G2z
A | =F2F2D2F2 | EDE2D3

